X:604
M:C
L:1/8
K:F
a/g/f/e/ f>d c<AA<f:|2 a/g/f/e/ f>d c<A A<c||
f>gf>d c<a f>c|d>fc<A A>GG>c|f/e/f/g/ a/g/f/e/ f<c d>f|c<f f>d c<a a>g|
f<ad<f c<fA<f|a/g/f/e/ f<F A<G G>A|F>GA>c d>ef>g|a/g/f/e/ f>d c<AA<f||

